X:1
T:Title
%%score { 1 | 2 }
L:1/8
M:3/4
K:G
V:1 treble nm="Grand Piano"
V:2 bass 
V:1
 z2 z2[Q:1/4=100] D2 | [DB]>[CA] [B,G]2 [D,D]2 | [DB]>[CA] [B,G]2 D2 | E3 [EG] [DF][CE] | %4
 [CE] [B,D]3 [B,DG]2 | F>G A3 F | G>A B3 B | A3 A B^c | [Ge] [Fd]3 [Ac]2 | [GB]>[Ac] [Bd]3 G | %10
 B>A G3 D | E3 [DF] [^CG][CA] | [EG] F3 D2 | G>A B3 [GB] |[M:7/8] [Gc]>[Gd] [Ge]3 [_B,E]2 | %15
[M:3/4] [B,D][Ec] [DB]3 [CDA] |[M:2/4] [CDA] [B,DG]3 |] %17
V:2
 z2 z2 D,2 | [G,,G,]>[G,,D,] [G,,D,]2 z2 | [G,,G,]>[G,,D,] [G,,D,]2 [B,,G,]2 | %3
 [C,G,C]3 [C,G,] [C,G,][C,G,] | [G,,G,] [G,,G,]3 [G,,G,]2 | [D,A,D]>[D,B,D] [D,CD]3 [D,A,D] | %6
 [G,B,D]>[G,CD] [G,DG]3 [G,DG] | [A,DF]3 [A,DF] [A,^CG][A,G] | [D,A,] [D,A,]3 [D,D]2 | %9
 [G,D]>[G,D] [G,D]3 [G,B,D] | [G,D]>[G,CD] [G,B,D]3 [B,,G,] | [C,G,C]3 [A,,A,] [A,,A,][A,,A,] | %12
 [D,A,] [D,A,D]3[K:treble] [A,C]2 | [G,B,D]>[G,CD] [G,DG]3[K:bass] [=F,D] | %14
[M:7/8] [E,C]>[D,B,] [C,C]3 [^C,G,]2 |[M:3/4] [D,G,][D,G,] [D,G,]3 D, |[M:2/4] G,, G,,3 |] %17

